**kern	**kern
*part1	*part1
*staff2	*staff1
*I"Piano	*
*clefF4	*clefG2
*k[f#]	*k[f#]
=1	=1
*^	*
8.FF#L	2FF#	4d]
(16DJk	.	.
4ryy	.	[4d)
=	=	=
8.EEL	2EE	4d]
(16DJk	.	.
4ryy	.	[4G) [4d
=	=	=
8.DDL	2DD	4G] 4d]
(16DJk	.	.
4ryy	.	[4F#) [4d
=	=	=
8.DDL	2DD	4F#] 4d]
(16DJk	.	.
4ryy	.	4F#) 4d
=	=	=
8.AAL	(2AA	4r
(16EJk	.	.
4ryy	.	([4c) [4cc
=	=	=
8.GGL	2GG	4c] 4cc]
(16EJk	.	.
4ryy	.	[4B) [4b
=	=	=
8.FF#L	2FF#	4B] 4b]
(16BBJk	.	.
4ryy	.	[4A) [4d#X [4a
=	=	=
8.EEL	2EE)	4A] 4d#] 4a]
(16BBJk	.	.
4ryy	.	4G)) 4e 4g
=	=	=
8.AAL	(2AA	4r
(16EJk	.	.
4ryy	.	([4c) [4cc
*v	*v	*
=	=
*-	*-
!!!system-decoration: {(s1,s2)}
